packages/kaspersky-hexa-ui-icons/src/iconsSVGs/16/StatusLevelLow.svg

<svg width="16" height="16" viewBox="0 0 16 16" fill="none" xmlns="http://www.w3.org/2000/svg">
<path fill-rule="evenodd" clip-rule="evenodd" d="M1 2.5C1 1.67157 1.67157 1 2.5 1H13.5C14.3284 1 15 1.67157 15 2.5C15 3.32843 14.3284 4 13.5 4H2.5C1.67157 4 1 3.32843 1 2.5ZM2.5 2H13.5C13.7761 2 14 2.22386 14 2.5C14 2.77614 13.7761 3 13.5 3H2.5C2.22386 3 2 2.77614 2 2.5C2 2.22386 2.22386 2 2.5 2Z" fill="black"/>
<path fill-rule="evenodd" clip-rule="evenodd" d="M1 6.5C1 5.67157 1.67157 5 2.5 5H13.5C14.3284 5 15 5.67157 15 6.5C15 7.32843 14.3284 8 13.5 8H2.5C1.67157 8 1 7.32843 1 6.5ZM2.5 6H13.5C13.7761 6 14 6.22386 14 6.5C14 6.77614 13.7761 7 13.5 7H2.5C2.22386 7 2 6.77614 2 6.5C2 6.22386 2.22386 6 2.5 6Z" fill="black"/>
<path fill-rule="evenodd" clip-rule="evenodd" d="M2.5 9C1.67157 9 1 9.67157 1 10.5C1 11.3284 1.67157 12 2.5 12H13.5C14.3284 12 15 11.3284 15 10.5C15 9.67157 14.3284 9 13.5 9H2.5ZM13.5 10H2.5C2.22386 10 2 10.2239 2 10.5C2 10.7761 2.22386 11 2.5 11H13.5C13.7761 11 14 10.7761 14 10.5C14 10.2239 13.7761 10 13.5 10Z" fill="black"/>
<path d="M2.5 13C1.67157 13 1 13.6716 1 14.5C1 15.3284 1.67157 16 2.5 16H13.5C14.3284 16 15 15.3284 15 14.5C15 13.6716 14.3284 13 13.5 13H2.5Z" fill="black"/>
</svg>

<svg xmlns="http://www.w3.org/2000/svg" width="16" height="16" fill="none" viewBox="0 0 16 16"><path fill="#000" fill-rule="evenodd" d="M1 2.5C1 1.6716 1.6716 1 2.5 1h11c.8284 0 1.5.6716 1.5 1.5S14.3284 4 13.5 4h-11C1.6716 4 1 3.3284 1 2.5M2.5 2h11a.5.5 0 0 1 0 1h-11a.5.5 0 0 1 0-1M1 6.5C1 5.6716 1.6716 5 2.5 5h11c.8284 0 1.5.6716 1.5 1.5S14.3284 8 13.5 8h-11C1.6716 8 1 7.3284 1 6.5M2.5 6h11a.5.5 0 0 1 0 1h-11a.5.5 0 0 1 0-1m0 3C1.6716 9 1 9.6716 1 10.5S1.6716 12 2.5 12h11c.8284 0 1.5-.6716 1.5-1.5S14.3284 9 13.5 9zm11 1h-11a.5.5 0 0 0 0 1h11a.5.5 0 0 0 0-1m-11 3c-.8284 0-1.5.6716-1.5 1.5S1.6716 16 2.5 16h11c.8284 0 1.5-.6716 1.5-1.5s-.6716-1.5-1.5-1.5z"/></svg>
